X: 308
T: Sandy River Belle [1]
B: canberra pickers and fiddlers
B: tunes
M:C|
L:1/8
R: reel
Q: 1/4=100
K:D
V:1 
A,B,DE F2 FF|E2D2B2A2|A,B,DE F2 FF|E2D2B,2A,2|
A,B,DE F2 FF|E2D2B2A2|Ad2B dBAG|1FDEF D4:|2FDEF D2 AB||
|:d2 dB A2de|effd edBA|d2 dB A2Bd|e2ef e2AB|
d2 dB A2de|"*"effd edBA|Ad2B dBAG|FDEF D2 AB:|
"*"fgfd edBA|
% abcbook-tune_id 63da5934864ccb715a5ecbee
% abcbook-tune_composer_id 
% abcbook-link-0 https://www.youtube.com/watch?v=jcTybEgrCRw
% abcbook-link-end-at-0 252
% abcbook-boost 0
% abcbook-difficulty 0
% abcbook-tags canberra pickers and fiddlers,old time tunes,© free
% abcbook-tablature 
% abcbook-transpose 
% abcbook-tuning ADAE
% abcbook-lastupdated 1732835726809
% abcbook-src-url https://tunebook.net/scrape/tunes.abc
% abcbook-soundfonts 
% abcbook-repeats 1
%%gchordfont "itim-music,Itim" 20

